X:4
%%scale 0.7
%%newpage 1
T:Fantasy \`a 5 (VdGS Anon No.1607)
C:Anon
L:1/4
M:4/2
P:Tenor I
%%measurenb 0
%%squarebreve
K:C clef=alto
A4 A2 G2 | G2 E2 G A A2 | ^F2 =F2 E4 | D4 ^C4 | D E F G A2 A2-|
A G F D z A, A, A, | B,/C/ D2 ^C D2 D2 | B,2 C4 D2 | _B,4 A,3 =B, | ^C D E3 D2 C |
D2 E3 F G2 | F D A,4 z2 | z D D ^C D =C/B,/ A,/G,/ A, | G,2 G3 F G2 | A2 c2 z4 |
z G G F E A2 ^G | A2 A3 G F E | D C _B,3 B, B, F, | C D C2 F,2 C2 | D2 G,2 A,4-|
A,4 A F G E | F D C A, _B,4 | A,4 D2 B,2| E4 E4-|E2 F2 E2 A2-|
A D A3 G2 F | E D D4 ^C D | E2 D2 z2 A,2-|A, ^G, A, B, G, A,2 G, | A,4 z4 |
z4 E3 ^F | ^G2 A c B3 A/=G/ | ^F2 E2 F4 | ^G3 A B4 | A4 B2 A2 |
^G2 A2 B4 | ^c4 B4 | A4 G4 | z2 A4 E2 | ^F2 A2 D3 C | B,2 A,2 G, D2 C |
B,2 A,2 B,4 | ^C4 D3 E | F3 E/D/ E4 | F4 A, B, C B,/A,/ | B, ^C D4 =C2 | B, A,/G,/ A, B, C4 |
B, C D2 z4 | z4 E F G F/E/ | F G A3 G/F/ E2 | z4 z2 A2-|A2 G4 F2-| F2 E4 D2-|
D2 ^C2 D2 F E | D2 C2 G F E2-| E D D4 ^C2 | D4 z4 | z8 | z4 z E F G |
A3 D EF G2-| G F E D E4 | D2 A,2 z2 C2 | [M:6/2] D2 C2 z2 A,2 A,4|[M:4/2] A,8 |]

